X:563
T:Polska efter Lars Orre
T:Älvdalen, SvL 615
S:Efter Kristina Ståhl Cedervall
S:efter Lars Orre Rot
Z:[[http://www.bluerose.karenlmyers.org/IncipitsPolskaAlvdalen2.html|Karen Myers (#1049)]]
Z:Upptecknad 9/1994
M:3/4
L:1/8
R:Polska
O:Älvdalen, Dalarna
K:Am
(3e2 ^g2 b2 a2 | a2 (g/a/)g/e/ f2 | (fe) de fg | a2 f/d/f/d/ e2 |
(3e2 ^g2 b2 a2 | a2 (g/a/)g/e/ f>g | (fe) (df) ag | (ge) e4 :|
|: B2 (c/B/)c/d/ ec | B2 AB c2 | B2 (c/B/)c/d/ ec | B2 AG E2 |
B2 (c/B/)c/d/ ec | B2 AB c2 | B2 (c/B/)c/d/ ec | (BG) A4 :|
(:musicend:)

(:music:)
